Libraries/Atlas.Resources/Icons/svg/list2.svg

<?xml version="1.0" encoding="UTF-8" standalone="no" ?>
<!DOCTYPE svg PUBLIC "-//W3C//DTD SVG 1.1//EN" "http://www.w3.org/Graphics/SVG/1.1/DTD/svg11.dtd">
<svg xmlns="http://www.w3.org/2000/svg" xmlns:xlink="http://www.w3.org/1999/xlink" version="1.1" width="24" height="24" viewBox="0 0 640 640" xml:space="preserve">
<desc>Created with Fabric.js 4.6.0</desc>
<defs>
</defs>
<g transform="matrix(1.27 0 0 1.27 320 320)" id="awkPYyhvkw3uLciJAFm7Q"  >
<g style="" vector-effect="non-scaling-stroke"   >
		<g transform="matrix(1 0 0 1 -192.15 -162.85)" id="3oSURPANykQu1BxKBasFI"  >
<path style="stroke: none; stroke-width: 1; stroke-dasharray: none; stroke-linecap: butt; stroke-dashoffset: 0; stroke-linejoin: miter; stroke-miterlimit: 4; fill: rgb(0,0,0); fill-rule: nonzero; opacity: 1;" vector-effect="non-scaling-stroke"  transform=" translate(-52.7, -82)" d="M 52.7 134.75 C 81.80000000000001 134.75 105.4 111.05 105.4 82.05 C 105.4 53.05 81.80000000000001 29.25 52.7 29.25 C 23.599999999999994 29.25 0 52.95 0 81.95 C 0 110.95 23.7 134.75 52.7 134.75 z M 52.7 53.75 C 68.3 53.75 80.9 66.45 80.9 81.95 C 80.9 97.45 68.2 110.15 52.7 110.15 C 37.2 110.15 24.500000000000004 97.45 24.500000000000004 81.95 C 24.500000000000004 66.45 37.2 53.75 52.7 53.75 z" stroke-linecap="round" />
</g>
		<g transform="matrix(1 0 0 1 -192.15 0)" id="zgkqTKhWNGmSFXBoiqJzN"  >
<path style="stroke: none; stroke-width: 1; stroke-dasharray: none; stroke-linecap: butt; stroke-dashoffset: 0; stroke-linejoin: miter; stroke-miterlimit: 4; fill: rgb(0,0,0); fill-rule: nonzero; opacity: 1;" vector-effect="non-scaling-stroke"  transform=" translate(-52.7, -244.85)" d="M 52.7 297.55 C 81.80000000000001 297.55 105.4 273.85 105.4 244.85000000000002 C 105.4 215.85000000000002 81.80000000000001 192.15000000000003 52.7 192.15000000000003 C 23.599999999999994 192.15000000000003 0 215.75 0 244.85 C 0 273.95 23.7 297.55 52.7 297.55 z M 52.7 216.65 C 68.3 216.65 80.9 229.35 80.9 244.85 C 80.9 260.35 68.2 273.05 52.7 273.05 C 37.2 273.05 24.500000000000004 260.45 24.500000000000004 244.85000000000002 C 24.500000000000004 229.25000000000006 37.2 216.65 52.7 216.65 z" stroke-linecap="round" />
</g>
		<g transform="matrix(1 0 0 1 -192.15 162.9)" id="ZYeU53Ykj_SHpPZmDe23g"  >
<path style="stroke: none; stroke-width: 1; stroke-dasharray: none; stroke-linecap: butt; stroke-dashoffset: 0; stroke-linejoin: miter; stroke-miterlimit: 4; fill: rgb(0,0,0); fill-rule: nonzero; opacity: 1;" vector-effect="non-scaling-stroke"  transform=" translate(-52.7, -407.75)" d="M 52.7 460.45 C 81.80000000000001 460.45 105.4 436.75 105.4 407.75 C 105.4 378.65 81.7 355.05 52.7 355.05 C 23.700000000000003 355.05 0 378.75 0 407.75 C 0 436.75 23.7 460.45 52.7 460.45 z M 52.7 379.45 C 68.3 379.45 80.9 392.15 80.9 407.65 C 80.9 423.25 68.2 435.84999999999997 52.7 435.84999999999997 C 37.2 435.84999999999997 24.500000000000004 423.15 24.500000000000004 407.65 C 24.5 392.15 37.2 379.45 52.7 379.45 z" stroke-linecap="round" />
</g>
		<g transform="matrix(1 0 0 1 81.8 -162.9)" id="2c2FVbE1CYo-J8TmLI5eY"  >
<path style="stroke: none; stroke-width: 1; stroke-dasharray: none; stroke-linecap: butt; stroke-dashoffset: 0; stroke-linejoin: miter; stroke-miterlimit: 4; fill: rgb(0,0,0); fill-rule: nonzero; opacity: 1;" vector-effect="non-scaling-stroke"  transform=" translate(-326.65, -81.95)" d="M 175.9 94.25 L 477.4 94.25 C 484.2 94.25 489.7 88.75 489.7 81.95 C 489.7 75.15 484.2 69.65 477.4 69.65 L 175.9 69.65 C 169.1 69.65 163.6 75.15 163.6 81.95 C 163.6 88.75 169.1 94.25 175.9 94.25 z" stroke-linecap="round" />
</g>
		<g transform="matrix(1 0 0 1 81.8 0)" id="QDAqgoPldpfx1hW0llI7V"  >
<path style="stroke: none; stroke-width: 1; stroke-dasharray: none; stroke-linecap: butt; stroke-dashoffset: 0; stroke-linejoin: miter; stroke-miterlimit: 4; fill: rgb(0,0,0); fill-rule: nonzero; opacity: 1;" vector-effect="non-scaling-stroke"  transform=" translate(-326.65, -244.85)" d="M 175.9 257.15 L 477.4 257.15 C 484.2 257.15 489.7 251.64999999999998 489.7 244.84999999999997 C 489.7 238.04999999999995 484.2 232.54999999999995 477.4 232.54999999999995 L 175.9 232.54999999999995 C 169.1 232.54999999999995 163.6 238.04999999999995 163.6 244.84999999999997 C 163.6 251.64999999999998 169.1 257.15 175.9 257.15 z" stroke-linecap="round" />
</g>
		<g transform="matrix(1 0 0 1 81.8 162.8)" id="2LhaXPAK4MfYNz7WM9-_g"  >
<path style="stroke: none; stroke-width: 1; stroke-dasharray: none; stroke-linecap: butt; stroke-dashoffset: 0; stroke-linejoin: miter; stroke-miterlimit: 4; fill: rgb(0,0,0); fill-rule: nonzero; opacity: 1;" vector-effect="non-scaling-stroke"  transform=" translate(-326.65, -407.65)" d="M 175.9 419.95 L 477.4 419.95 C 484.2 419.95 489.7 414.45 489.7 407.65 C 489.7 400.84999999999997 484.2 395.34999999999997 477.4 395.34999999999997 L 175.9 395.34999999999997 C 169.1 395.34999999999997 163.6 400.84999999999997 163.6 407.65 C 163.6 414.45 169.1 419.95 175.9 419.95 z" stroke-linecap="round" />
</g>
</g>
</g>
</svg>

<?xml version="1.0" encoding="iso-8859-1"?>
<!-- Generator: Adobe Illustrator 19.0.0, SVG Export Plug-In . SVG Version: 6.00 Build 0)  -->
<svg version="1.1" id="Capa_1" xmlns="http://www.w3.org/2000/svg" xmlns:xlink="http://www.w3.org/1999/xlink" x="0px" y="0px"
	 viewBox="0 0 489.7 489.7" style="enable-background:new 0 0 489.7 489.7;" xml:space="preserve">
<g>
	<g>
		<path d="M52.7,134.75c29.1,0,52.7-23.7,52.7-52.7s-23.6-52.8-52.7-52.8S0,52.95,0,81.95S23.7,134.75,52.7,134.75z M52.7,53.75
			c15.6,0,28.2,12.7,28.2,28.2s-12.7,28.2-28.2,28.2s-28.2-12.7-28.2-28.2S37.2,53.75,52.7,53.75z"/>
		<path d="M52.7,297.55c29.1,0,52.7-23.7,52.7-52.7s-23.6-52.7-52.7-52.7S0,215.75,0,244.85S23.7,297.55,52.7,297.55z M52.7,216.65
			c15.6,0,28.2,12.7,28.2,28.2s-12.7,28.2-28.2,28.2s-28.2-12.6-28.2-28.2S37.2,216.65,52.7,216.65z"/>
		<path d="M52.7,460.45c29.1,0,52.7-23.7,52.7-52.7c0-29.1-23.7-52.7-52.7-52.7S0,378.75,0,407.75C0,436.75,23.7,460.45,52.7,460.45
			z M52.7,379.45c15.6,0,28.2,12.7,28.2,28.2c0,15.6-12.7,28.2-28.2,28.2s-28.2-12.7-28.2-28.2C24.5,392.15,37.2,379.45,52.7,379.45
			z"/>
		<path d="M175.9,94.25h301.5c6.8,0,12.3-5.5,12.3-12.3s-5.5-12.3-12.3-12.3H175.9c-6.8,0-12.3,5.5-12.3,12.3
			S169.1,94.25,175.9,94.25z"/>
		<path d="M175.9,257.15h301.5c6.8,0,12.3-5.5,12.3-12.3s-5.5-12.3-12.3-12.3H175.9c-6.8,0-12.3,5.5-12.3,12.3
			S169.1,257.15,175.9,257.15z"/>
		<path d="M175.9,419.95h301.5c6.8,0,12.3-5.5,12.3-12.3s-5.5-12.3-12.3-12.3H175.9c-6.8,0-12.3,5.5-12.3,12.3
			S169.1,419.95,175.9,419.95z"/>
	</g>
</g>
<g>
</g>
<g>
</g>
<g>
</g>
<g>
</g>
<g>
</g>
<g>
</g>
<g>
</g>
<g>
</g>
<g>
</g>
<g>
</g>
<g>
</g>
<g>
</g>
<g>
</g>
<g>
</g>
<g>
</g>
</svg>
